recipes/rocketchat/icon.svg

<svg height="80" viewBox="0 0 80 80" width="80" xmlns="http://www.w3.org/2000/svg"><g fill="none" fill-rule="evenodd" transform="translate(0 6)"><path d="m79.9844575 34.1583472c0-4.016328-1.2014653-7.8666064-3.5716656-11.4470539-2.1283107-3.213222-5.1100213-6.0576221-8.8613085-8.4549652-7.2439197-4.62703988-16.7646368-7.17606304-26.8066543-7.17606304-3.3545241 0-6.6611494.28340222-9.8679849.84541669-1.9894036-1.86247131-4.3188899-3.53813675-6.7832915-4.86254306-13.167425-6.38173853-24.08679196-.15008341-24.08679196-.15008341s10.15218526 8.34000782 8.50126763 15.65018792c-4.54162003 4.5056958-7.00362672 9.9390348-7.00362672 15.595104 0 .0175631.00079832.0359244.00079832.0542856 0 .0175628-.00079832.035126-.00079832.0542853 0 5.6560694 2.46120841 11.0894085 7.00362672 15.594306 1.65091763 7.3109784-8.50126763 15.6509859-8.50126763 15.6509859s10.91936696 6.2308572 24.08679196-.1500834c2.4644016-1.3244063 4.7930895-3.00087 6.7832915-4.8625428 3.2076339.5612162 6.5134608.8446184 9.8679849.8446184 10.0428156 0 19.5627346-2.5474269 26.8066543-7.1744666 3.7512872-2.3973428 6.7329978-5.2409447 8.8613085-8.4557637 2.3702003-3.5796491 3.5716656-7.4315241 3.5716656-11.4462553 0-.0183613-.0007981-.0359241-.0007981-.0542853 0-.0183613.0007981-.037521.0007981-.0550841z" fill="#c1272d"/><path d="m40.7448291 12.7586872c18.5951756 0 33.6705759 9.6292882 33.6705759 21.5074328 0 11.8773463-15.0754003 21.5074328-33.6705759 21.5074328-4.1408657 0-8.1061016-.4789897-11.7695738-1.3515494-3.723346 4.4785532-11.9140687 10.7062169-19.87088483 8.6936622 2.58814063-2.7797368 6.42245263-7.4770284 5.60178373-15.2143075-4.76914007-3.7105728-7.63190145-8.4597553-7.63190145-13.6352381-.00079831-11.878943 15.07460205-21.5074328 33.67057635-21.5074328" fill="#fff"/><path d="m40.7448291 39.431225c2.47035 0 4.4729646-2.002615 4.4729646-4.4729653 0-2.47035-2.0026146-4.4729646-4.4729646-4.4729646-2.4703504 0-4.472965 2.0026146-4.472965 4.4729646 0 2.4703503 2.0026146 4.4729653 4.472965 4.4729653zm15.5511965 0c2.47035 0 4.472965-2.002615 4.472965-4.4729653 0-2.47035-2.002615-4.4729646-4.472965-4.4729646-2.4703503 0-4.4729647 2.0026146-4.4729647 4.4729646 0 2.4703503 2.0026144 4.4729653 4.4729647 4.4729653zm-31.1031918-.0007984c2.4699094 0 4.4721666-2.0022575 4.4721666-4.4721669 0-2.4699091-2.0022572-4.4721663-4.4721666-4.4721663-2.4699093 0-4.4721665 2.0022572-4.4721665 4.4721663 0 2.4699094 2.0022572 4.4721669 4.4721665 4.4721669z" fill="#c1272d"/><path d="m40.7448291 52.9435222c-4.1408657 0-8.1061016-.4151244-11.7695738-1.1719278-3.2874655 3.427969-10.0587822 8.0358493-17.0759803 7.8666062-.92445 1.4010447-1.92952994 2.5466285-2.79490453 3.4766666 7.95681613 2.0125547 16.14753873-4.2143106 19.87088483-8.6936619 3.6634722.8733578 7.6295066 1.3515491 11.7695738 1.3515491 18.4458906 0 33.4254928-9.4768097 33.6641893-21.2232322-.2386965 10.1817228-15.2182987 18.394-33.6641893 18.394z" fill="#ccc"/></g></svg>

<?xml version="1.0" encoding="UTF-8" standalone="no"?>
<svg width="80px" height="80px" viewBox="0 0 80 80" version="1.1" xmlns="http://www.w3.org/2000/svg" xmlns:xlink="http://www.w3.org/1999/xlink">
    <!-- Generator: Sketch 3.7.2 (28276) - http://www.bohemiancoding.com/sketch -->
    <title>rocketchat</title>
    <desc>Created with Sketch.</desc>
    <defs></defs>
    <g id="icons" stroke="none" stroke-width="1" fill="none" fill-rule="evenodd">
        <g id="rocketchat">
            <g id="rocket-chat" transform="translate(0.000000, 6.000000)">
                <g id="Group">
                    <path d="M79.9844575,34.1583472 C79.9844575,30.1420192 78.7829922,26.2917408 76.4127919,22.7112933 C74.2844812,19.4980713 71.3027706,16.6536712 67.5514834,14.2563281 C60.3075637,9.62928822 50.7868466,7.08026506 40.7448291,7.08026506 C37.390305,7.08026506 34.0836797,7.36366728 30.8768442,7.92568175 C28.8874406,6.06321044 26.5579543,4.387545 24.0935527,3.06313869 C10.9261277,-3.31859984 0.00676074016,2.91305528 0.00676074016,2.91305528 C0.00676074016,2.91305528 10.158946,11.2530631 8.50802837,18.5632432 C3.96640834,23.068939 1.50440165,28.502278 1.50440165,34.1583472 C1.50440165,34.1759103 1.50519997,34.1942716 1.50519997,34.2126328 C1.50519997,34.2301956 1.50440165,34.2477588 1.50440165,34.2669181 C1.50440165,39.9229875 3.96561006,45.3563266 8.50802837,49.8612241 C10.158946,57.1722025 0.00676074016,65.51221 0.00676074016,65.51221 C0.00676074016,65.51221 10.9261277,71.7430672 24.0935527,65.3621266 C26.5579543,64.0377203 28.8866422,62.3612566 30.8768442,60.4995838 C34.0844781,61.0608 37.390305,61.3442022 40.7448291,61.3442022 C50.7876447,61.3442022 60.3075637,58.7967753 67.5514834,54.1697356 C71.3027706,51.7723928 74.2844812,48.9287909 76.4127919,45.7139719 C78.7829922,42.1343228 79.9844575,38.2824478 79.9844575,34.2677166 C79.9844575,34.2493553 79.9836594,34.2317925 79.9836594,34.2134313 C79.9836594,34.19507 79.9844575,34.1759103 79.9844575,34.1583472 L79.9844575,34.1583472 L79.9844575,34.1583472 L79.9844575,34.1583472 Z" id="Shape" fill="#C1272D"></path>
                    <path d="M40.7448291,12.7586872 C59.3400047,12.7586872 74.415405,22.3879754 74.415405,34.26612 C74.415405,46.1434663 59.3400047,55.7735528 40.7448291,55.7735528 C36.6039634,55.7735528 32.6387275,55.2945631 28.9752553,54.4220034 C25.2519093,58.9005566 17.0611866,65.1282203 9.10437047,63.1156656 C11.6925111,60.3359288 15.5268231,55.6386372 14.7061542,47.9013581 C9.93701413,44.1907853 7.07425275,39.4416028 7.07425275,34.26612 C7.07345444,22.387177 22.1488548,12.7586872 40.7448291,12.7586872" id="Shape" fill="#FFFFFF"></path>
                    <path d="M40.7448291,39.431225 C43.2151791,39.431225 45.2177937,37.42861 45.2177937,34.9582597 C45.2177937,32.4879097 43.2151791,30.4852951 40.7448291,30.4852951 C38.2744787,30.4852951 36.2718641,32.4879097 36.2718641,34.9582597 C36.2718641,37.42861 38.2744787,39.431225 40.7448291,39.431225 L40.7448291,39.431225 L40.7448291,39.431225 Z M56.2960256,39.431225 C58.7663756,39.431225 60.7689906,37.42861 60.7689906,34.9582597 C60.7689906,32.4879097 58.7663756,30.4852951 56.2960256,30.4852951 C53.8256753,30.4852951 51.8230609,32.4879097 51.8230609,34.9582597 C51.8230609,37.42861 53.8256753,39.431225 56.2960256,39.431225 L56.2960256,39.431225 L56.2960256,39.431225 Z M25.1928338,39.4304266 C27.6627432,39.4304266 29.6650004,37.4281691 29.6650004,34.9582597 C29.6650004,32.4883506 27.6627432,30.4860934 25.1928338,30.4860934 C22.7229245,30.4860934 20.7206673,32.4883506 20.7206673,34.9582597 C20.7206673,37.4281691 22.7229245,39.4304266 25.1928338,39.4304266 L25.1928338,39.4304266 L25.1928338,39.4304266 Z" id="Shape" fill="#C1272D"></path>
                    <path d="M40.7448291,52.9435222 C36.6039634,52.9435222 32.6387275,52.5283978 28.9752553,51.7715944 C25.6877898,55.1995634 18.9164731,59.8074437 11.899275,59.6382006 C10.974825,61.0392453 9.96974506,62.1848291 9.10437047,63.1148672 C17.0611866,65.1274219 25.2519092,58.9005566 28.9752553,54.4212053 C32.6387275,55.2945631 36.6047619,55.7727544 40.7448291,55.7727544 C59.1907197,55.7727544 74.1703219,46.2959447 74.4090184,34.5495222 C74.1703219,44.731245 59.1907197,52.9435222 40.7448291,52.9435222 L40.7448291,52.9435222 L40.7448291,52.9435222 L40.7448291,52.9435222 Z" id="Shape" fill="#CCCCCC"></path>
                </g>
            </g>
        </g>
    </g>
</svg>
